svgs/sharp-solid/bus.svg

<svg xmlns="http://www.w3.org/2000/svg" viewBox="0 0 576 512"><!--! Font Awesome Pro 6.6.0 by @fontawesome - https://fontawesome.com License - https://fontawesome.com/license (Commercial License) Copyright 2024 Fonticons, Inc. --><path d="M288 0C412.8 0 512 48 512 48l0 48 0 32 32 0 0 128-32 0 0 192-32 0 0 64-96 0 0-64-192 0 0 64-96 0 0-64-32 0L64 96s0 0 0 0l0-48s99.2-48 224-48zM64 256l-32 0 0-128 32 0 0 128zM304 128l0 160 144 0 0-160-144 0zm-32 0l-144 0 0 160 144 0 0-160zM144 400a32 32 0 1 0 0-64 32 32 0 1 0 0 64zm288 0a32 32 0 1 0 0-64 32 32 0 1 0 0 64zM384 96l0-32-16 0L208 64l-16 0 0 32 16 0 160 0 16 0z"/></svg>

<svg xmlns="http://www.w3.org/2000/svg" viewBox="0 0 576 512"><!--! Font Awesome Pro 6.4.2 by @fontawesome - https://fontawesome.com License - https://fontawesome.com/license (Commercial License) Copyright 2023 Fonticons, Inc. --><path d="M288 0C412.8 0 512 48 512 48V96v32h32V256H512l0 192H480v64H384V448H192v64H96V448H64V96h0V48s99.2-48 224-48zM64 256H32V128H64l0 128zM304 128V288H448V128H304zm-32 0H128V288H272V128zM144 400a32 32 0 1 0 0-64 32 32 0 1 0 0 64zm288 0a32 32 0 1 0 0-64 32 32 0 1 0 0 64zM384 96V64H368 208 192V96h16H368h16z"/></svg>
